scalable/apps/preferences-system.svg

<?xml version="1.0" encoding="UTF-8" standalone="no"?>
<!-- Generator: Adobe Illustrator 19.0.0, SVG Export Plug-In . SVG Version: 6.00 Build 0)  -->

<svg
   xmlns:dc="http://purl.org/dc/elements/1.1/"
   xmlns:cc="http://creativecommons.org/ns#"
   xmlns:rdf="http://www.w3.org/1999/02/22-rdf-syntax-ns#"
   xmlns:svg="http://www.w3.org/2000/svg"
   xmlns="http://www.w3.org/2000/svg"
   xmlns:xlink="http://www.w3.org/1999/xlink"
   xmlns:sodipodi="http://sodipodi.sourceforge.net/DTD/sodipodi-0.dtd"
   xmlns:inkscape="http://www.inkscape.org/namespaces/inkscape"
   version="1.1"
   id="Capa_1"
   x="0px"
   y="0px"
   viewBox="0 0 48 48"
   xml:space="preserve"
   sodipodi:docname="preferences-system.svg"
   width="48"
   height="48"
   inkscape:version="0.92.3 (2405546, 2018-03-11)"><metadata
   id="metadata41"><rdf:RDF><cc:Work
       rdf:about=""><dc:format>image/svg+xml</dc:format><dc:type
         rdf:resource="http://purl.org/dc/dcmitype/StillImage" /><dc:title /></cc:Work></rdf:RDF></metadata><defs
   id="defs39"><linearGradient
     inkscape:collect="always"
     id="linearGradient975"><stop
       style="stop-color:#000000;stop-opacity:1;"
       offset="0"
       id="stop971" /><stop
       style="stop-color:#000000;stop-opacity:0;"
       offset="1"
       id="stop973" /></linearGradient><linearGradient
     inkscape:collect="always"
     id="linearGradient912"><stop
       style="stop-color:#000000;stop-opacity:1;"
       offset="0"
       id="stop908" /><stop
       style="stop-color:#000000;stop-opacity:0;"
       offset="1"
       id="stop910" /></linearGradient><linearGradient
     x1="-83.756935"
     y1="-7.8379993"
     x2="-92.222527"
     y2="27.521217"
     id="linearGradient5588"
     xlink:href="#linearGradient3202"
     gradientUnits="userSpaceOnUse"
     gradientTransform="matrix(0.5857566,-0.140767,0.1402401,0.5879573,74.307775,0.1578927)" /><linearGradient
     id="linearGradient3202"><stop
       id="stop3204"
       style="stop-color:white;stop-opacity:1"
       offset="0" /><stop
       id="stop3206"
       style="stop-color:#d3eefc;stop-opacity:1"
       offset="1" /></linearGradient><linearGradient
     inkscape:collect="always"
     xlink:href="#linearGradient912"
     id="linearGradient914"
     x1="7.7212324"
     y1="2.7288945"
     x2="40.526192"
     y2="38.305367"
     gradientUnits="userSpaceOnUse" /><linearGradient
     inkscape:collect="always"
     xlink:href="#linearGradient912"
     id="linearGradient950"
     x1="23.211143"
     y1="22.079693"
     x2="16.929459"
     y2="38.104012"
     gradientUnits="userSpaceOnUse"
     gradientTransform="translate(0.2976462,-0.1246126)" /><linearGradient
     inkscape:collect="always"
     xlink:href="#linearGradient912"
     id="linearGradient942"
     x1="23.224609"
     y1="21.847656"
     x2="28.251953"
     y2="5.5292969"
     gradientUnits="userSpaceOnUse"
     gradientTransform="translate(0.1564702,0.5342109)" /><linearGradient
     inkscape:collect="always"
     xlink:href="#linearGradient975"
     id="linearGradient977"
     x1="-8.9422102"
     y1="3.5089843"
     x2="-27.667004"
     y2="12.416177"
     gradientUnits="userSpaceOnUse"
     gradientTransform="translate(40)" /><linearGradient
     inkscape:collect="always"
     xlink:href="#linearGradient975"
     id="linearGradient977-3"
     x1="-8.9422102"
     y1="3.5089843"
     x2="-27.667004"
     y2="12.416177"
     gradientUnits="userSpaceOnUse"
     gradientTransform="matrix(-1,0,0,1,8.534179,0.0507816)" /></defs><sodipodi:namedview
   pagecolor="#ffffff"
   bordercolor="#666666"
   borderopacity="1"
   objecttolerance="10"
   gridtolerance="10"
   guidetolerance="10"
   inkscape:pageopacity="0"
   inkscape:pageshadow="2"
   inkscape:window-width="1366"
   inkscape:window-height="719"
   id="namedview37"
   showgrid="false"
   showguides="true"
   inkscape:guide-bbox="true"
   inkscape:zoom="3.7565048"
   inkscape:cx="24"
   inkscape:cy="24"
   inkscape:window-x="0"
   inkscape:window-y="25"
   inkscape:window-maximized="1"
   inkscape:current-layer="Capa_1" />


<g
   id="g6"
   transform="translate(0,-464)">
</g>
<g
   id="g8"
   transform="translate(0,-464)">
</g>
<g
   id="g10"
   transform="translate(0,-464)">
</g>
<g
   id="g12"
   transform="translate(0,-464)">
</g>
<g
   id="g14"
   transform="translate(0,-464)">
</g>
<g
   id="g16"
   transform="translate(0,-464)">
</g>
<g
   id="g18"
   transform="translate(0,-464)">
</g>
<g
   id="g20"
   transform="translate(0,-464)">
</g>
<g
   id="g22"
   transform="translate(0,-464)">
</g>
<g
   id="g24"
   transform="translate(0,-464)">
</g>
<g
   id="g26"
   transform="translate(0,-464)">
</g>
<g
   id="g28"
   transform="translate(0,-464)">
</g>
<g
   id="g30"
   transform="translate(0,-464)">
</g>
<g
   id="g32"
   transform="translate(0,-464)">
</g>
<g
   id="g34"
   transform="translate(0,-464)">
</g>
<g
   id="g1011"><path
     id="path851"
     d="m 24.000976,0.3457035 c -5.833461,0 -10.522198,1.1203776 -13.935546,3.3320313 -4.1011933,2.6574037 -6.2695315,6.9015122 -6.2695315,12.2714832 0,7.226706 5.8062658,16.88549 7.5859375,19.673828 2.031747,3.183082 4.250107,6.079783 6.246093,8.15625 2.542362,2.644284 4.56815,3.875 6.373047,3.875 1.804991,0 3.829009,-1.230625 6.371093,-3.875 1.995894,-2.076376 4.214349,-4.973077 6.246094,-8.15625 C 38.397835,32.8348 44.204101,23.175924 44.204101,15.949219 44.204193,10.57934 42.037899,6.3352307 37.936523,3.6777348 34.523359,1.4660811 29.834346,0.3457035 24.000976,0.3457035 Z"
     style="fill:#535d6c;stroke-width:0.0924025" /><path
     inkscape:connector-curvature="0"
     id="path888"
     d="m 27.275391,46.398438 c 0.956237,-0.633463 1.959043,-1.436744 3.095703,-2.619141 1.995894,-2.076377 4.214348,-4.973078 6.246094,-8.15625 0.889835,-1.394123 2.786912,-4.505287 4.460932,-8.171875 0.83702,-1.833294 1.61927,-3.806143 2.19141,-5.771484 0.33774,-1.160163 0.39048,-2.257188 0.55078,-3.382813 L 43.44922,17.925781 38.173828,12.650391 32.1875,8.8476562 28.705078,5.3652344 27.152344,11.716797 20.888672,5.453125 20.097656,8.2460938 c 0,0 -2.968497,0.6956801 -3.533203,0.6015624 C 15.999747,8.7535382 6.964844,15.341797 6.964844,15.341797 L 5.085938,17.875 20.005859,32.794922 17.304688,36.427734 Z"
     style="fill:url(#linearGradient914);fill-opacity:1;stroke:none;stroke-width:1px;stroke-linecap:butt;stroke-linejoin:miter;stroke-opacity:1;opacity:0.7" /><path
     id="path2"
     d="m 20.323241,5.2871098 c 0.335841,-0.013405 0.659376,0.211044 0.736328,0.5703125 0.498098,2.3198967 1.830674,8.3048247 3.214844,13.3632807 1.379022,-5.047794 2.704793,-11.0006044 3.201172,-13.3124995 0.102605,-0.4790246 0.641802,-0.7194071 1.066406,-0.4746094 0.18097,0.1043891 0.303834,0.2794969 0.345703,0.4746094 0.02086,0.097219 0.0217,0.2010295 0,0.3027344 -0.03216,0.152766 -0.07112,0.3361998 -0.117187,0.5488281 0.241797,0.075928 0.765317,0.2487406 1.476562,0.5136719 3.516675,1.3110873 11.638694,4.9081541 13.203125,10.6523431 -1.978698,-2.603984 -8.451394,-6.807145 -13.777343,-7.771484 0.04383,-0.1981481 0.15518,-0.7489307 0.269531,-1.3261716 l -1.505859,-0.53125 c -0.735811,3.3415526 -2.088928,9.1980306 -3.398438,13.6621086 9.35e-4,0.0031 0.003,0.0067 0.0039,0.0098 2.53683,8.339244 6.1875,14.408203 6.1875,14.408203 l -1.316401,0.759731 c 0,0 -3.153239,-5.29149 -5.636719,-12.748047 -2.486007,7.483495 -5.654296,12.796875 -5.654296,12.796875 l -1.316406,-0.757812 c 0,0 3.648717,-6.068959 6.185546,-14.408203 0.006,-0.01964 0.0116,-0.04474 0.01758,-0.06445 C 22.195198,17.485766 20.836903,11.598826 20.098632,8.2460941 l -1.505859,0.53125 c 0.114351,0.577241 0.225704,1.1280238 0.269531,1.3261719 C 13.536356,11.067854 7.0636598,15.271015 5.084961,17.875 6.6493933,12.13081 14.771412,8.533744 18.288086,7.2226567 18.999331,6.9577253 19.52285,6.7849123 19.764648,6.7089848 c -0.04607,-0.2126283 -0.08699,-0.3960621 -0.11914,-0.5488281 -0.0217,-0.1017049 -0.02086,-0.2055155 0,-0.3027344 0.04187,-0.1951125 0.164733,-0.3702203 0.345702,-0.4746094 0.106151,-0.061199 0.220084,-0.091235 0.332031,-0.095703 z"
     style="fill:#f9f9f9;stroke-width:0.0924025" /><path
     inkscape:connector-curvature="0"
     id="path876"
     d="m 3.923828,14.736328 c -0.02737,0.413032 -0.128906,0.785353 -0.128906,1.212891 0,7.226706 5.806265,16.885489 7.585937,19.673828 2.031747,3.183082 4.250108,6.079783 6.246094,8.15625 2.542362,2.644284 4.568149,3.875 6.373047,3.875 1.804991,0 3.829009,-1.230626 6.371094,-3.875 1.995894,-2.076377 4.214348,-4.973078 6.246094,-8.15625 1.77967,-2.788246 7.585932,-12.447124 7.585932,-19.673828 1e-5,-0.427554 -0.10156,-0.799843 -0.1289,-1.212891 -0.08351,1.592147 -0.31114,3.248005 -0.80469,4.94336 -0.57214,1.965341 -1.35439,3.93819 -2.19141,5.771484 -1.67402,3.666588 -3.571097,6.777752 -4.460932,8.171875 -2.031746,3.183172 -4.2502,6.079873 -6.246094,8.15625 -1.271043,1.322187 -2.411549,2.291484 -3.460938,2.929687 -1.049388,0.638204 -2.00766,0.945313 -2.910156,0.945313 -0.902449,0 -1.858349,-0.307098 -2.908203,-0.945313 C 20.041943,44.07077 18.898134,43.101439 17.626953,41.779297 15.630967,39.70283 13.412606,36.806129 11.380859,33.623047 10.491024,32.228877 8.5959,29.117748 6.921875,25.451172 6.084862,23.617884 5.302614,21.645022 4.730469,19.679688 4.236917,17.984324 4.00733,16.328486 3.923828,14.736328 Z"
     style="fill:#000000;stroke-width:0.0924025;opacity:0.5" /><path
     sodipodi:nodetypes="ccccccccc"
     inkscape:connector-curvature="0"
     id="path926"
     d="m 25.038085,21.958984 c 1.296349,-4.459299 2.528291,-9.722011 3.257057,-13.0028976 0.13529,-0.610257 0.251237,-1.135866 0.341797,-1.552735 0.04696,-0.2148138 0.08636,-0.4003424 0.11914,-0.5546874 0.02215,-0.1027473 0.02089,-0.2063483 0,-0.3046875 -0.04193,-0.1972619 -0.164915,-0.374633 -0.347656,-0.4804687 -0.428779,-0.2482659 -0.975465,-0.0075 -1.080078,0.4765625 -0.47273,2.1821321 -1.752899,7.8147927 -3.053932,12.6806327 0.311225,1.162191 0.450936,1.697473 0.763672,2.738281 z"
     style="opacity:0.45;fill:url(#linearGradient942);fill-opacity:1;stroke-width:0.05813364" /><path
     sodipodi:nodetypes="ccccccc"
     inkscape:connector-curvature="0"
     id="path924"
     d="m 23.508789,21.955081 c -0.04479,0.149414 -0.05129,0.05973 -0.09591,0.205462 -2.579904,8.425199 -6.28125,14.552735 -6.28125,14.552735 l 1.330078,0.769531 c 0,0 3.274102,-5.380731 5.814657,-13.094138 -0.153748,-0.465532 -0.315759,-1.030096 -0.463094,-1.511331 -0.110612,-0.36127 -0.193056,-0.539735 -0.304482,-0.922259 z"
     style="opacity:0.45;fill:url(#linearGradient950);fill-opacity:1;stroke-width:0.05813364" /><path
     inkscape:connector-curvature="0"
     id="path943"
     d="M 19.763672,6.7089844 C 19.521874,6.7849114 19.000308,6.9577248 18.289062,7.2226562 17.409894,7.5504281 16.241353,8.021463 14.960938,8.6328125 13.680522,9.244162 12.2879,9.9961307 10.955078,10.886719 9.622257,11.777307 8.348886,12.805216 7.3125,13.970703 6.794307,14.553447 6.335707,15.171611 5.957031,15.822266 5.578355,16.472921 5.281492,17.156976 5.085938,17.875 5.580612,17.224004 6.355931,16.472565 7.324219,15.697266 8.292506,14.921966 9.453123,14.123415 10.71875,13.375 c 1.265627,-0.748415 2.634791,-1.445281 4.021484,-2.015625 1.386694,-0.570344 2.789607,-1.014775 4.121094,-1.255859 -0.04383,-0.1981484 -0.15518,-0.7489312 -0.269531,-1.3261722 l 1.505859,-0.53125 z"
     style="fill:url(#linearGradient977);fill-opacity:1;stroke:none;stroke-width:1px;stroke-linecap:butt;stroke-linejoin:miter;stroke-opacity:1" /><path
     inkscape:connector-curvature="0"
     id="path943-2"
     d="m 28.770507,6.759766 c 0.241798,0.075927 0.763364,0.2487404 1.47461,0.5136718 0.879168,0.3277719 2.047709,0.7988068 3.328124,1.4101563 1.280416,0.6113495 2.673038,1.3633179 4.00586,2.2539069 1.332821,0.890588 2.606192,1.918497 3.642578,3.083984 0.518193,0.582744 0.976793,1.200908 1.355469,1.851563 0.378676,0.650655 0.675539,1.334709 0.871093,2.052734 -0.494674,-0.650997 -1.269993,-1.402435 -2.238281,-2.177734 -0.968287,-0.7753 -2.128904,-1.573851 -3.394531,-2.322266 -1.265627,-0.748415 -2.634791,-1.445281 -4.021484,-2.015625 -1.386694,-0.570344 -2.789607,-1.014775 -4.121094,-1.255859 0.04383,-0.1981488 0.15518,-0.7489316 0.269531,-1.3261726 l -1.505859,-0.53125 z"
     style="fill:url(#linearGradient977-3);fill-opacity:1;stroke:none;stroke-width:1px;stroke-linecap:butt;stroke-linejoin:miter;stroke-opacity:1" /></g></svg>

<svg xmlns="http://www.w3.org/2000/svg" xmlns:xlink="http://www.w3.org/1999/xlink" width="48" height="48"><defs><linearGradient id="c"><stop offset="0"/><stop offset="1" stop-opacity="0"/></linearGradient><linearGradient id="b"><stop offset="0"/><stop offset="1" stop-opacity="0"/></linearGradient><linearGradient id="a"><stop offset="0" stop-color="#fff"/><stop offset="1" stop-color="#d3eefc"/></linearGradient><linearGradient xlink:href="#b" id="d" x1="7.72" y1="2.73" x2="40.53" y2="38.31" gradientUnits="userSpaceOnUse"/><linearGradient xlink:href="#b" id="f" x1="23.21" y1="22.08" x2="16.93" y2="38.1" gradientUnits="userSpaceOnUse" gradientTransform="translate(.3 -.12)"/><linearGradient xlink:href="#b" id="e" x1="23.22" y1="21.85" x2="28.25" y2="5.53" gradientUnits="userSpaceOnUse" gradientTransform="translate(.16 .53)"/><linearGradient xlink:href="#c" id="g" x1="-8.94" y1="3.51" x2="-27.67" y2="12.42" gradientUnits="userSpaceOnUse" gradientTransform="translate(40)"/><linearGradient xlink:href="#c" id="h" x1="-8.94" y1="3.51" x2="-27.67" y2="12.42" gradientUnits="userSpaceOnUse" gradientTransform="matrix(-1 0 0 1 8.53 .05)"/></defs><path d="M24 .35c-5.83 0-10.52 1.12-13.93 3.33-4.1 2.66-6.27 6.9-6.27 12.27 0 7.23 5.8 16.88 7.58 19.67a54.48 54.48 0 0 0 6.25 8.16c2.54 2.64 4.57 3.87 6.37 3.87 1.8 0 3.83-1.23 6.37-3.87 2-2.08 4.22-4.97 6.25-8.16 1.78-2.79 7.58-12.44 7.58-19.67 0-5.37-2.16-9.61-6.26-12.27C34.52 1.47 29.84.35 24 .35z" fill="#535d6c"/><path d="M27.28 46.4c.95-.64 1.95-1.44 3.1-2.62 1.99-2.08 4.2-4.97 6.24-8.16.89-1.4 2.78-4.5 4.46-8.17a43.2 43.2 0 0 0 2.19-5.77c.34-1.16.39-2.26.55-3.38l-.37-.37-5.28-5.28-5.98-3.8-3.48-3.48-1.56 6.35-6.26-6.27-.8 2.8s-2.96.7-3.53.6c-.56-.1-9.6 6.5-9.6 6.5L5.1 17.87 20 32.78l-2.7 3.64z" fill="url(#d)" opacity=".7"/><path d="M20.32 5.29c.34-.02.66.2.74.57.5 2.32 1.83 8.3 3.21 13.36 1.38-5.05 2.7-11 3.2-13.31a.72.72 0 1 1 1.42.3l-.12.55c.24.08.77.25 1.48.51 3.51 1.31 11.64 4.91 13.2 10.66-1.98-2.6-8.45-6.81-13.78-7.78l.27-1.32-1.5-.53c-.74 3.34-2.1 9.2-3.4 13.66a71 71 0 0 0 6.19 14.42l-1.32.76s-3.15-5.3-5.63-12.75a71.73 71.73 0 0 1-5.66 12.8l-1.31-.76s3.64-6.07 6.18-14.41l.02-.06A229.45 229.45 0 0 1 20.1 8.25l-1.5.53c.1.57.22 1.13.26 1.32-5.32.97-11.8 5.17-13.78 7.78 1.57-5.75 9.7-9.35 13.2-10.66a31.6 31.6 0 0 1 1.48-.51l-.11-.55a.73.73 0 0 1 .67-.87z" fill="#f9f9f9"/><path d="M3.92 14.74c-.02.4-.13.78-.13 1.2 0 7.24 5.81 16.9 7.6 19.68a54.48 54.48 0 0 0 6.24 8.16c2.54 2.64 4.57 3.87 6.37 3.87 1.8 0 3.83-1.23 6.37-3.87 2-2.08 4.22-4.97 6.25-8.16 1.78-2.79 7.58-12.44 7.58-19.67 0-.43-.1-.8-.13-1.21a21.6 21.6 0 0 1-.8 4.94 43.2 43.2 0 0 1-2.2 5.77 69.59 69.59 0 0 1-4.45 8.17 54.47 54.47 0 0 1-6.25 8.16 17.98 17.98 0 0 1-3.46 2.93c-1.05.64-2 .94-2.91.94-.9 0-1.86-.3-2.9-.94-1.06-.64-2.2-1.6-3.47-2.93-2-2.08-4.22-4.97-6.25-8.16-.89-1.4-2.78-4.5-4.46-8.17a43.2 43.2 0 0 1-2.19-5.77 21.6 21.6 0 0 1-.8-4.94z" opacity=".5"/><path d="M25.04 21.96a225.55 225.55 0 0 0 3.6-14.56l.12-.55a.73.73 0 0 0-.35-.79.73.73 0 0 0-1.08.48c-.47 2.18-1.75 7.81-3.06 12.68.32 1.16.46 1.7.77 2.74z" opacity=".45" fill="url(#e)"/><path d="M23.5 21.96c-.04.14-.04.05-.09.2-2.58 8.43-6.28 14.55-6.28 14.55l1.33.77s3.28-5.38 5.82-13.1c-.16-.46-.32-1.02-.47-1.5-.1-.36-.19-.54-.3-.92z" opacity=".45" fill="url(#f)"/><path d="M19.76 6.7l-1.47.52c-.88.33-2.05.8-3.33 1.41a32.37 32.37 0 0 0-4 2.26 19 19 0 0 0-3.65 3.08c-.52.58-.97 1.2-1.35 1.85a8.54 8.54 0 0 0-.87 2.05c.5-.65 1.27-1.4 2.23-2.17a31.64 31.64 0 0 1 7.42-4.34 20.74 20.74 0 0 1 4.12-1.26l-.27-1.32 1.5-.53z" fill="url(#g)"/><path d="M28.77 6.76c.24.08.76.25 1.48.51.87.33 2.04.8 3.32 1.41 1.28.61 2.68 1.37 4 2.26a19 19 0 0 1 3.65 3.08c.52.58.98 1.2 1.36 1.85.38.65.67 1.34.87 2.06-.5-.66-1.27-1.4-2.24-2.18a31.64 31.64 0 0 0-7.42-4.34 20.74 20.74 0 0 0-4.12-1.26l.27-1.32-1.5-.53z" fill="url(#h)"/></svg>
